img/acc-icon.svg

<svg width="12" height="13" viewBox="0 0 12 13" fill="none" xmlns="http://www.w3.org/2000/svg">
<path d="M6 0C3.687 0 1.8 1.85841 1.8 4.13636C1.8 5.56045 2.538 6.825 3.6564 7.57132C1.5162 8.47541 0 10.5672 0 13H1.2C1.2 10.3823 3.342 8.27273 6 8.27273C8.658 8.27273 10.8 10.3823 10.8 13H12C12 10.5672 10.4838 8.476 8.3436 7.57073C8.91441 7.19123 9.38209 6.67975 9.70572 6.08104C10.0293 5.48233 10.1991 4.81463 10.2 4.13636C10.2 1.85841 8.313 0 6 0ZM6 1.18182C7.6638 1.18182 9 2.49777 9 4.13636C9 5.77495 7.6638 7.09091 6 7.09091C4.3362 7.09091 3 5.77495 3 4.13636C3 2.49777 4.3362 1.18182 6 1.18182Z" fill="#111111"/>
</svg>

<svg width="12" height="13" fill="none" xmlns="http://www.w3.org/2000/svg"><path d="M6 0C3.687 0 1.8 1.858 1.8 4.136c0 1.424.738 2.689 1.856 3.435C1.516 8.475 0 10.567 0 13h1.2c0-2.618 2.142-4.727 4.8-4.727s4.8 2.11 4.8 4.727H12c0-2.433-1.516-4.524-3.656-5.43a4.173 4.173 0 0 0 1.362-1.489 4.1 4.1 0 0 0 .494-1.945C10.2 1.858 8.313 0 6 0Zm0 1.182c1.664 0 3 1.316 3 2.954 0 1.639-1.336 2.955-3 2.955S3 5.775 3 4.136c0-1.638 1.336-2.954 3-2.954Z" fill="#111"/></svg>
